src/images/svg/be-square/resume.svg

<svg width="64" height="64" viewBox="0 0 64 64" fill="none" xmlns="http://www.w3.org/2000/svg">
<path fill-rule="evenodd" clip-rule="evenodd" d="M50.1188 33.8313C52.0371 34.4857 53.7955 35.5747 55.2712 37.0496C60.5093 42.292 60.5093 50.821 55.2716 56.0629C52.7313 58.602 49.3553 60 45.7648 60C43.8788 60 42.0522 59.6137 40.3746 58.8795H6.2779C5.46288 58.8795 4.7998 58.2166 4.7998 57.402V35.6799C4.7998 35.2269 5.16741 34.8596 5.62085 34.8596C6.07428 34.8596 6.44189 35.2269 6.44189 35.6799V57.2388H37.5998C37.1314 56.8793 36.6829 56.4876 36.2584 56.0633C35.6972 55.5018 35.1967 54.9024 34.7559 54.2735H11.376C10.561 54.2735 9.89792 53.6106 9.89792 52.796V10.2466H6.44189V31.8923C6.44189 32.3453 6.07428 32.7126 5.62085 32.7126C5.16741 32.7126 4.7998 32.3453 4.7998 31.8923V10.0834C4.7998 9.26881 5.46288 8.606 6.2779 8.606H9.89792V5.47744C9.89792 4.66281 10.561 4 11.376 4H41.147C41.6502 4 41.9146 4.25298 42.1943 4.52073L42.3062 4.62738C42.3062 4.62738 49.5933 11.5797 49.6314 11.6156C49.8471 11.8189 50.1156 12.0719 50.1156 12.5785L50.1186 23.1172C50.1186 23.5702 49.751 23.9375 49.2976 23.9375C48.8442 23.9375 48.4765 23.5702 48.4765 23.1172V13.2502H43.9515C42.0429 13.2502 40.49 11.6989 40.49 9.79206L40.4953 5.64062H11.54V52.6327H33.7736C31.9336 48.9915 31.8532 44.6817 33.5326 40.9823H17.153C16.6995 40.9823 16.3319 40.615 16.3319 40.162C16.3319 39.709 16.6995 39.3417 17.153 39.3417H34.421C34.9378 38.5287 35.5495 37.7591 36.258 37.0501L36.2584 37.0497C36.689 36.6192 37.1443 36.2224 37.6201 35.8587H17.153C16.6995 35.8587 16.3319 35.4915 16.3319 35.0384C16.3319 34.5854 16.6995 34.2181 17.153 34.2181H40.4106C42.0783 33.4942 43.8922 33.1131 45.7647 33.1131C46.6865 33.1131 47.5939 33.2059 48.4768 33.3858V26.9019C48.4768 26.4489 48.8444 26.0816 49.2978 26.0816C49.7512 26.0816 50.1188 26.4489 50.1188 26.9019V33.8313ZM47.2477 11.6095L42.136 6.7335L42.1323 9.79305C42.1323 10.7943 42.9484 11.6095 43.9517 11.6095H47.2477ZM45.7647 58.3594C48.9164 58.3594 51.88 57.1321 54.1098 54.9035C58.7086 50.3011 58.7086 42.8119 54.1093 38.2091C52.6852 36.7858 50.9612 35.7717 49.0803 35.2242C49.0675 35.2207 49.0548 35.2173 49.0422 35.2131C47.9902 34.9108 46.8895 34.7536 45.7647 34.7536C44.093 34.7536 42.4741 35.0991 40.9895 35.756C40.9552 35.7751 40.919 35.7912 40.8819 35.8052C39.6096 36.3836 38.4382 37.1917 37.42 38.2092C36.7374 38.8923 36.157 39.6392 35.6771 40.4305C35.6414 40.5335 35.5858 40.6271 35.5146 40.7068C32.9477 45.2129 33.5822 51.0631 37.42 54.9038C38.4292 55.9124 39.5894 56.7152 40.8489 57.2927C40.8859 57.3067 40.9218 57.3228 40.956 57.3419C42.4497 58.0085 44.0803 58.3594 45.7647 58.3594ZM21.1876 12.8223H19.7743C19.1669 12.8223 18.6928 13.1099 18.3654 13.6774C17.8488 14.5718 17.8468 15.9682 18.3608 16.8565C18.6859 17.4183 19.1607 17.7032 19.7719 17.7032H19.7736H21.4851C21.9386 17.7032 22.3062 18.0705 22.3062 18.5235C22.3062 18.9766 21.9386 19.3439 21.4851 19.3439H19.7743H19.771C18.5667 19.3439 17.561 18.7522 16.9391 17.6775C16.1329 16.2844 16.1346 14.2573 16.9429 12.8574C17.5669 11.7767 18.5724 11.1816 19.7743 11.1816H21.1876C21.641 11.1816 22.0086 11.5489 22.0086 12.002C22.0086 12.455 21.641 12.8223 21.1876 12.8223ZM43.8398 23.9678H17.1527C16.6993 23.9678 16.3317 24.3351 16.3317 24.7881C16.3317 25.2411 16.6993 25.6084 17.1527 25.6084H43.84C44.2934 25.6084 44.661 25.2411 44.661 24.7881C44.661 24.3351 44.2934 23.9678 43.8398 23.9678ZM43.8398 29.0918H17.1527C16.6993 29.0918 16.3317 29.4591 16.3317 29.9121C16.3317 30.3651 16.6993 30.7324 17.1527 30.7324H43.84C44.2934 30.7324 44.661 30.3651 44.661 29.9121C44.661 29.4591 44.2934 29.0918 43.8398 29.0918ZM25.3122 18.671C25.4856 19.0834 25.8459 19.342 26.2526 19.3458H26.2622C26.6692 19.3458 27.021 19.0995 27.2045 18.6852C27.2137 18.6644 27.222 18.6433 27.2294 18.6219L29.433 12.2708C29.5814 11.8427 29.3546 11.3755 28.9261 11.227C28.4976 11.0788 28.0299 11.3055 27.8814 11.7334L26.2615 16.4024L24.6415 11.7334C24.493 11.3054 24.0251 11.0788 23.5968 11.227C23.1683 11.3755 22.9415 11.8427 23.09 12.2708L25.2935 18.6219C25.2992 18.6385 25.3055 18.6549 25.3122 18.671ZM28.5916 45.2852C28.5916 45.7382 28.224 46.1055 27.7705 46.1055H17.1527C16.6993 46.1055 16.3317 45.7382 16.3317 45.2852C16.3317 44.8321 16.6993 44.4648 17.1527 44.4648H27.7705C28.224 44.4648 28.5916 44.8321 28.5916 45.2852ZM50.8959 41.6288C50.5482 41.338 50.0304 41.3839 49.7393 41.7313L43.734 48.8991L40.8963 46.4897C40.5508 46.1963 40.0326 46.2383 39.739 46.5836C39.4453 46.9288 39.4874 47.4465 39.8329 47.7399L43.3009 50.6845C43.4499 50.811 43.6386 50.8797 43.8326 50.8797C43.8557 50.8797 43.8789 50.8787 43.9021 50.8768C44.1202 50.8583 44.3218 50.7536 44.4622 50.5859L50.9984 42.7842C51.2894 42.4369 51.2435 41.9196 50.8959 41.6288Z" fill="#FF444F"/>
</svg>

<svg xmlns="http://www.w3.org/2000/svg" width="64" height="64" fill="none"  xmlns:v="https://vecta.io/nano"><path fill-rule="evenodd" d="M50.119 33.831c1.918.654 3.677 1.743 5.152 3.218a13.47 13.47 0 0 1 0 19.013A13.36 13.36 0 0 1 45.765 60c-1.886 0-3.713-.386-5.39-1.12H6.278A1.48 1.48 0 0 1 4.8 57.402V35.68a.82.82 0 1 1 1.642 0v21.559H37.6c-.468-.359-.917-.751-1.341-1.175-.561-.561-1.062-1.161-1.503-1.79h-23.38a1.48 1.48 0 0 1-1.478-1.477V10.247H6.442v21.646a.82.82 0 1 1-1.642 0V10.083a1.48 1.48 0 0 1 1.478-1.477h3.62V5.477A1.48 1.48 0 0 1 11.376 4h29.771c.503 0 .768.253 1.047.521l.112.107 7.325 6.988c.216.203.484.456.484.963l.003 10.539a.82.82 0 0 1-1.642 0V13.25h-4.525c-1.909 0-3.462-1.551-3.462-3.458l.005-4.151H11.54v46.992h22.234a13.52 13.52 0 0 1-.241-11.65h-16.38a.82.82 0 1 1 0-1.641h17.268c.517-.813 1.129-1.583 1.837-2.292h0c.431-.431.886-.827 1.362-1.191H17.153a.82.82 0 1 1 0-1.641h23.258c1.668-.724 3.482-1.105 5.354-1.105.922 0 1.829.093 2.712.273v-6.484a.82.82 0 1 1 1.642 0v6.929zM47.248 11.61l-5.112-4.876-.004 3.06a1.82 1.82 0 0 0 1.819 1.816h3.296zm-1.483 46.75c3.152 0 6.115-1.227 8.345-3.456 4.599-4.602 4.599-12.092-.001-16.694-1.424-1.423-3.148-2.437-5.029-2.985-.013-.004-.026-.007-.038-.011-1.052-.302-2.153-.459-3.278-.459-1.672 0-3.291.346-4.775 1.002-.034.019-.071.035-.108.049-1.272.578-2.444 1.386-3.462 2.404-.683.683-1.263 1.43-1.743 2.221-.036.103-.091.197-.163.276-2.567 4.506-1.932 10.356 1.905 14.197a11.81 11.81 0 0 0 3.429 2.389.8.8 0 0 1 .107.049c1.494.667 3.124 1.017 4.809 1.017zM21.188 12.822h-1.413c-.607 0-1.082.288-1.409.855-.517.894-.519 2.291-.005 3.179.325.562.8.847 1.411.847h1.713a.82.82 0 1 1 0 1.641h-1.714c-1.204 0-2.21-.592-2.832-1.666-.806-1.393-.805-3.42.004-4.82.624-1.081 1.629-1.676 2.831-1.676h1.413a.82.82 0 1 1 0 1.641zM43.84 23.968H17.153a.82.82 0 1 0 0 1.641H43.84a.82.82 0 1 0 0-1.641zm0 5.124H17.153a.82.82 0 1 0 0 1.641H43.84a.82.82 0 1 0 0-1.641zM25.312 18.671c.173.412.534.671.94.675h.01c.407 0 .759-.246.942-.661.009-.021.018-.042.025-.063l2.204-6.351a.82.82 0 1 0-1.552-.537l-1.62 4.669-1.62-4.669a.82.82 0 1 0-1.552.537l2.204 6.351c.006.017.012.033.019.049zm3.279 26.614a.82.82 0 0 1-.821.82H17.153a.82.82 0 1 1 0-1.641h10.618a.82.82 0 0 1 .821.82zm22.304-3.656a.82.82 0 0 0-1.157.102l-6.005 7.168-2.838-2.409a.82.82 0 1 0-1.063 1.25l3.468 2.945a.82.82 0 0 0 .532.195.85.85 0 0 0 .069-.003.82.82 0 0 0 .56-.291l6.536-7.802a.82.82 0 0 0-.102-1.155z" fill="#ff444f"/></svg>
